icons/svg/osmc_other/osmc_shell_modern.svg

<?xml version="1.0" encoding="UTF-8" standalone="no"?>
<!-- Generator: Adobe Illustrator 16.0.4, SVG Export Plug-In . SVG Version: 6.00 Build 0)  -->

<svg
   xmlns:dc="http://purl.org/dc/elements/1.1/"
   xmlns:cc="http://creativecommons.org/ns#"
   xmlns:rdf="http://www.w3.org/1999/02/22-rdf-syntax-ns#"
   xmlns:svg="http://www.w3.org/2000/svg"
   xmlns="http://www.w3.org/2000/svg"
   xmlns:sodipodi="http://sodipodi.sourceforge.net/DTD/sodipodi-0.dtd"
   xmlns:inkscape="http://www.inkscape.org/namespaces/inkscape"
   version="1.1"
   id="Слой_1"
   x="0px"
   y="0px"
   width="16"
   height="16"
   viewBox="0 0 16 16"
   xml:space="preserve"
   inkscape:version="0.48.4 r9939"
   sodipodi:docname="osmc_shell_modern.svg"
   style="enable-background:new"><metadata
     id="metadata11"><rdf:RDF><cc:Work
         rdf:about=""><dc:format>image/svg+xml</dc:format><dc:type
           rdf:resource="http://purl.org/dc/dcmitype/StillImage" /><dc:title /></cc:Work></rdf:RDF></metadata><defs
     id="defs9" /><sodipodi:namedview
     pagecolor="#ffffff"
     bordercolor="#666666"
     borderopacity="1"
     objecttolerance="10"
     gridtolerance="10"
     guidetolerance="10"
     inkscape:pageopacity="0"
     inkscape:pageshadow="2"
     inkscape:window-width="1920"
     inkscape:window-height="1004"
     id="namedview7"
     showgrid="false"
     inkscape:zoom="22.627417"
     inkscape:cx="15.860132"
     inkscape:cy="5.9049841"
     inkscape:window-x="1680"
     inkscape:window-y="0"
     inkscape:window-maximized="1"
     inkscape:current-layer="Слой_1"
     inkscape:snap-bbox="true"
     inkscape:object-nodes="true"
     inkscape:snap-smooth-nodes="true"
     inkscape:bbox-paths="true"
     inkscape:bbox-nodes="true"
     inkscape:snap-bbox-edge-midpoints="true"
     inkscape:snap-bbox-midpoints="true" /><path
     style="color:#000000;fill:#ffce00;fill-opacity:1;fill-rule:nonzero;stroke:none;marker:none;visibility:visible;display:inline;overflow:visible;enable-background:accumulate"
     inkscape:connector-curvature="0"
     d="m 3.2254062,10.520989 c -0.3463204,0.102978 -0.5120873,0.04265 -0.5120865,-0.496522 0,-0.7447851 -0.00578,-0.8761975 0.168903,-0.8761975 0.3700636,-2.8e-6 1.1760517,0.6438849 1.1760516,0.8605935 -4e-7,0.177527 -0.4462279,0.397357 -0.8328681,0.512126 z M 4.0582744,5.9843239 c 4e-7,-0.1775271 -0.446228,-0.3973566 -0.8328682,-0.5121257 -0.3463193,-0.1029799 -0.5120866,-0.042648 -0.5120865,0.496523 -10e-8,0.7447842 -0.00578,0.8761967 0.1689029,0.8761957 0.3700635,-2.8e-6 1.1760517,-0.6438838 1.1760518,-0.860593 z M 8.1531732,12.097934 C 7.9000426,11.862849 5.905011,9.9620539 5.905011,9.9620539 5.882607,9.9415939 5.84677,9.8320288 5.908551,9.7859142 l 0.093182,-0.069 c 0.062273,-0.046114 0.1998167,-0.01214 0.224905,0.00624 0,0 2.5658077,2.0433028 2.9076467,2.3071668 0.341839,0.26421 0.8700543,0.246527 1.0788323,0.184809 0.522838,-0.154992 0.92068,-0.349508 1.34137,-0.607478 0.336014,-0.206656 0.145607,-0.513168 -0.564952,-0.765936 C 9.9994109,10.489433 6.6795854,9.2176131 6.6795854,9.2176131 6.6491225,9.2068691 6.6468807,9.1565871 6.6728664,9.1066591 l 0.040318,-0.075929 c 0.027328,-0.050619 0.07348,-0.083217 0.1043899,-0.073849 0,0 4.5335107,1.4216089 4.8816217,1.5096789 0.348111,0.08876 0.886183,0.250688 1.133041,-0.185504 C 13.051319,9.8944489 13.268609,9.250218 13.368965,8.72873 13.407945,8.5255439 13.301745,8.323745 12.505632,8.327905 11.519092,8.3340739 7.2212389,8.1631747 7.2212389,8.1631747 7.1880928,8.1624942 7.1612069,8.1128928 7.1612069,8.0536061 l 5e-7,-0.089455 c -1.1e-6,-0.060333 0.02688,-0.1088745 0.06003,-0.1102608 0,0 5.1741786,-0.1619255 5.6105496,-0.1740605 0.436372,-0.012803 0.615131,-0.1206436 0.493718,-0.5706989 C 13.237696,6.6119146 13.091191,6.1542253 12.844332,5.7592957 12.574175,5.3279595 12.385559,5.403894 11.83584,5.546055 11.285673,5.688217 6.8180197,7.0976882 6.8180197,7.0976882 c -0.03092,0.00934 -0.077509,-0.022884 -0.1043899,-0.073859 l -0.040315,-0.075929 c -0.026435,-0.050273 -0.024188,-0.1002072 0.00672,-0.1109549 0,0 4.0084322,-1.5682764 4.5164862,-1.7607139 0.507606,-0.1924356 0.716383,-0.422668 0.297933,-0.7059495 C 11.113635,4.129302 10.685327,3.9288895 10.208636,3.7919299 9.5711019,3.6098944 9.3309639,3.8921362 9.1230839,4.0499035 8.9152029,4.2083604 6.2266375,6.3314113 6.2266375,6.3314113 c -0.02509,0.018378 -0.1626295,0.052015 -0.224907,0.0062 L 5.9085476,6.2686159 C 5.8467231,6.222493 5.8825622,6.1129326 5.9050123,6.0931692 L 8.1379422,3.9708105 c 0,0 0.5259757,-0.460462 -0.1043887,-0.4781451 -3.0120359,0 -2.3171567,1.8352613 -3.7284191,3.0408548 -0.821668,0.7014421 -1.6809695,0.8370154 -1.6809694,1.4937292 -1e-7,0.6563671 1.0107323,0.7766834 1.7257719,1.4573214 1.4238061,1.3550362 0.7177267,3.0224782 3.6840645,3.0224782 0.1809997,-1e-6 0.5864585,0.02566 0.119173,-0.409145 z"
     id="path3-3" /></svg>

<svg width="16" height="16" viewBox="0 0 16 16" fill="none" xmlns="http://www.w3.org/2000/svg">
<path d="M3.2254 10.521C2.87908 10.624 2.71331 10.5636 2.71332 10.0245C2.71332 9.27969 2.70754 9.14828 2.88222 9.14828C3.25228 9.14828 4.05827 9.79217 4.05827 10.0089C4.05827 10.1864 3.61204 10.4062 3.2254 10.521ZM4.05827 5.98433C4.05827 5.80681 3.61204 5.58698 3.2254 5.47221C2.87908 5.36923 2.71332 5.42956 2.71332 5.96873C2.71332 6.71352 2.70754 6.84493 2.88222 6.84493C3.25228 6.84492 4.05827 6.20104 4.05827 5.98433ZM8.15317 12.0979C7.90004 11.8629 5.90501 9.96206 5.90501 9.96206C5.8826 9.9416 5.84677 9.83204 5.90855 9.78592L6.00173 9.71692C6.064 9.67081 6.20155 9.70478 6.22663 9.72316C6.22663 9.72316 8.79244 11.7665 9.13428 12.0303C9.47612 12.2945 10.0043 12.2769 10.2131 12.2151C10.736 12.0601 11.1338 11.8656 11.5545 11.6077C11.8905 11.401 11.7001 11.0945 10.9895 10.8417C9.99941 10.4894 6.67958 9.21762 6.67958 9.21762C6.64912 9.20688 6.64688 9.1566 6.67286 9.10667L6.71318 9.03074C6.74051 8.98012 6.78666 8.94752 6.81757 8.95689C6.81757 8.95689 11.3511 10.3785 11.6992 10.4666C12.0473 10.5553 12.5854 10.7173 12.8322 10.2811C13.0513 9.89446 13.2686 9.25023 13.369 8.72874C13.4079 8.52555 13.3017 8.32376 12.5056 8.32792C11.5191 8.33408 7.22123 8.16319 7.22123 8.16319C7.18809 8.1625 7.1612 8.1129 7.1612 8.05362L7.1612 7.96416C7.1612 7.90383 7.18808 7.85529 7.22123 7.8539C7.22123 7.8539 12.3954 7.69198 12.8318 7.67984C13.2682 7.66704 13.4469 7.5592 13.3255 7.10914C13.2377 6.61193 13.0912 6.15424 12.8443 5.75931C12.5742 5.32797 12.3856 5.4039 11.8358 5.54607C11.2857 5.68823 6.81802 7.0977 6.81802 7.0977C6.7871 7.10704 6.74051 7.07481 6.71363 7.02384L6.67331 6.94791C6.64688 6.89764 6.64912 6.8477 6.68003 6.83696C6.68003 6.83696 10.6885 5.26868 11.1965 5.07624C11.7041 4.88381 11.9129 4.65357 11.4945 4.37029C11.1136 4.12931 10.6853 3.9289 10.2086 3.79194C9.5711 3.6099 9.33096 3.89215 9.12308 4.04991C8.9152 4.20837 6.22663 6.33142 6.22663 6.33142C6.20154 6.3498 6.064 6.38344 6.00173 6.33762L5.90854 6.26863C5.84672 6.2225 5.88256 6.11294 5.90501 6.09318L8.13794 3.97082C8.13794 3.97082 8.66391 3.51036 8.03355 3.49268C5.02151 3.49268 5.71639 5.32794 4.30513 6.53353C3.48346 7.23497 2.62416 7.37055 2.62416 8.02726C2.62416 8.68363 3.63489 8.80394 4.34993 9.48458C5.77374 10.8396 5.06766 12.5071 8.034 12.5071C8.215 12.5071 8.62046 12.5327 8.15317 12.0979L8.15317 12.0979Z" fill="#FFCE00"/>
</svg>
